X:35
T:Iris est-il un c\oeur. [FJ35]
S:Festin joyeux.  Music page 17.
Z:transcribed by Eric Conrad, 2021.
N:NB The meter is given simply as "3"
N:NB Repeat marks were added at beginning and end.
N:NB The MS repeat mark is 4 vertical dots enclosed by bars on both sides.
N:NB The plus signs seem to indicate some kind of roll or trill.
N:NB1 MS has "|c2||" (half note), here "|c3:|" (dotted half note)
M:3/4
L:1/4
K:C % staff EGBdf; empty key sig, ending on C (third space)
|: cGc | B "^+"(c3/2 B/4c/4) | d2e | fe2 | "^+"d2d | cGc | B "^+"(c3/2 B/4c/4) |
d2e | f"^+"e2 | d3 :: B>Bc | d"^+"e2 | f2e | "^+"d>ec | "^+"B2G |
"^+"B>Bc | d"^+"e2 | fdB | e"^+"d>c | "_NB1"c3 :|

% The letter "B" appears in the lower right corner of page 17 of the music.

